public/sam-inline.svg

<?xml version="1.0" encoding="UTF-8" standalone="no"?>
<!-- Created with Inkscape (http://www.inkscape.org/) -->

<svg
   width="2000.0001"
   height="589.76282"
   viewBox="0 0 529.16668 156.04141"
   version="1.1"
   id="svg1"
   xml:space="preserve"
   xmlns="http://www.w3.org/2000/svg"
   xmlns:svg="http://www.w3.org/2000/svg"><defs
     id="defs1" /><g
     id="layer1"
     transform="translate(-928.30122,-27.28868)"><g
       id="g16"
       transform="matrix(1.5379421,0,0,1.5379421,796.11906,400.65182)"><path
         id="text10"
         style="font-weight:500;font-size:25.4px;line-height:0.85;font-family:Unbounded;-inkscape-font-specification:'Unbounded Medium';letter-spacing:0px;fill:#ffffff;stroke-width:0.848578;stroke-linecap:round;stroke-linejoin:round"
         d="m 148.90159,-242.76801 c -3.10537,0.46301 -7.34267,3.60691 -9.0661,7.46972 l -5.53668,-2.85613 2.54694,11.30571 c -2.2533,7.42484 -4.10727,16.3354 -4.93577,25.23818 -8.36717,-4.03189 -17.0623,-7.40033 -27.02347,-10.28947 l 0.0156,0.004 -8.78475,-14.82139 c -2.060185,2.46371 -2.909841,8.11303 -2.504631,11.87286 l -7.665315,-0.37377 8.903149,8.40692 -0.03377,-0.22085 c 3.692218,16.39827 14.261147,28.76972 25.238917,36.04095 -2.80785,0.67767 -5.38541,1.50414 -6.62012,2.30605 1.84316,3.02061 6.31862,4.32718 10.47319,4.31592 3.12855,-0.009 2.87311,-0.0172 5.08942,-0.0212 -7.22796,0 -8.3614,1.23971 -9.66738,2.31125 0.58385,2.0439 6.01144,3.42069 9.28508,3.41583 2.44615,-0.004 7.29068,-0.0276 9.02898,-0.0304 -7.06564,0 -8.34085,0.73119 -9.82475,2.21512 1.15602,2.07726 5.4018,2.54576 7.38805,2.54286 l 3.24919,-0.004 -2.142,5.48249 c 3.39315,3.98931 9.14614,6.53188 15.78903,7.15052 l 5.03004,-9.95728 c -6.33059,0 -14.02782,0.31696 -18.66743,-2.67573 l 34.23821,-0.0464 c 2.72677,-1.88139 6.17472,-7.22122 7.19765,-11.15391 -5.19878,-1.57263 -9.59265,-2.92537 -13.64703,-4.1797 l 2.2088,-4.37233 2.20844,-4.37233 11.69137,5.79909 c 1.64794,-6.18849 1.22044,-14.46897 -5.92939,-17.20465 l 1.72555,-3.41548 c -2.6545,-4.16335 -10.0119,-5.07551 -15.86807,-3.03279 -4.72236,-10.82502 -10.8462,-21.27358 -16.83907,-30.69988 l 0.92161,1.42454 z m 120.74733,18.06501 v 32.24579 h 6.22816 v -18.76021 l 9.89491,8.02758 6.7259,-5.45689 9.39681,-7.62597 v -8.4303 l -16.12271,13.08435 z m -56.0468,0.0126 c -2.98181,0 -5.57368,0.39038 -7.77519,1.17067 -2.20153,0.75241 -3.91521,1.85318 -5.14139,3.30226 -1.19829,1.44911 -1.79756,3.20464 -1.79756,5.26684 0,2.61952 0.90593,4.6677 2.7173,6.14465 1.83923,1.4491 4.79297,2.39653 8.8616,2.84239 l 6.31204,0.71079 c 2.22937,0.25079 3.57853,0.63794 4.36603,1.18104 0.81463,0.51594 1.22187,1.2628 1.22187,2.24036 0,1.24911 -0.70583,2.22657 -2.11786,2.93258 -1.38487,0.67887 -3.28585,1.01848 -5.70259,1.01848 -1.65643,0 -3.12281,-0.2036 -4.39907,-0.61093 -1.24911,-0.43447 -2.25393,-1.03201 -3.01423,-1.79236 -0.73316,-0.78749 -1.18108,-1.69692 -1.344,-2.72881 h -7.00576 c 0.10861,2.11805 0.82814,3.97796 2.15871,5.58011 1.33056,1.57494 3.14983,2.81037 5.45799,3.70645 2.3081,0.86894 4.98292,1.30353 8.02424,1.30353 2.98699,0 5.59382,-0.42092 7.82047,-1.26269 2.22668,-0.84181 3.95098,-2.02289 5.17293,-3.54353 1.24911,-1.54781 1.87364,-3.34011 1.87364,-5.37671 0,-1.71073 0.0279,-3.13513 -0.7245,-4.27769 -0.72455,-1.14256 -1.95088,-2.04851 -3.67863,-2.71731 -1.69992,-0.69667 -3.99881,-1.19815 -6.89701,-1.50469 l -6.56295,-0.79431 c -2.00645,-0.25081 -3.41348,-0.6271 -4.22164,-1.1287 -0.78027,-0.52948 -1.17067,-1.26764 -1.17067,-2.21512 0,-1.22616 0.6689,-2.17392 2.00653,-2.84276 1.33764,-0.66879 3.13504,-1.00327 5.39231,-1.00327 1.61628,0 3.35515,0.19518 4.55345,0.58534 1.1983,0.36226 2.13199,0.89191 2.80082,1.58858 0.69668,0.66883 1.1145,1.4629 1.2538,2.38251 h 7.18985 c -0.11147,-2.03429 -0.83594,-3.80394 -2.17354,-5.30878 -1.33764,-1.5327 -3.13505,-2.71676 -5.3923,-3.5528 -2.25726,-0.86388 -5.16648,-1.29612 -8.06469,-1.29612 z m 36.43475,0.0223 -16.12232,32.24578 h 6.86507 l 9.25763,-18.51672 9.25799,18.51672 h 6.86509 z m -154.839287,11.08117 c 19.765517,25.21409 29.148577,30.13392 55.086597,39.34062 -0.007,0.001 -0.0117,0.002 -0.0182,0.004 -10.28527,-3.09497 -15.56329,-4.31712 -21.76257,-4.39015 -0.0798,1.20003 0.23629,4.47066 1.3503,6.21703 -14.83678,-2.30307 -30.856595,-22.61785 -34.656502,-41.17122 z m 200.729507,5.16106 v 10.11353 h -10.11353 v 5.85514 h 15.96867 v -5.85514 -10.11353 z m 49.80193,22.01422 v 32.42468 h 6.22445 v -21.53096 l 17.26108,21.53096 h 8.76063 v -32.42468 h -6.22446 v 24.66025 l -11.22814,-14.00557 h -8.56911 v -10.65468 z m 37.0134,0.0894 v 9.49405 h 6.08453 v -4.5928 h 13.00713 c 2.02827,0 3.62619,0.42991 4.79399,1.2898 1.19852,0.83121 1.79756,2.00655 1.79756,3.5257 0,1.4905 -0.59904,2.66581 -1.79756,3.52571 -1.1678,0.85989 -2.76572,1.2898 -4.79399,1.2898 h -9.52114 -9.57052 l 22.23618,17.71352 h 9.70897 l -16.29233,-12.89838 h 3.99189 c 2.42777,0 4.54825,-0.40113 6.36142,-1.2037 1.84384,-0.83123 3.27282,-1.96339 4.28695,-3.39653 1.04485,-1.46181 1.56744,-3.13865 1.56744,-5.03042 0,-1.94908 -0.52259,-3.64033 -1.56744,-5.07347 -1.01413,-1.46182 -2.44311,-2.59397 -4.28695,-3.39654 -1.81317,-0.83122 -3.93365,-1.24674 -6.36142,-1.24674 z m 41.12704,0 v 5.85514 h 6.10049 v -5.85514 z m -173.83259,0.0546 -13.08657,26.17462 -3.03612,6.07153 h 6.86544 18.51525 6.86546 l -3.03615,-6.07153 z m 19.60462,0.0345 v 5.77906 h 6.22445 v -5.77906 z m 26.02875,0 v 32.24654 h 6.22446 v -32.24654 z m -96.88693,3.9e-4 v 32.24577 h 6.22779 v -18.76021 l 9.89492,8.02758 6.72627,-5.45688 9.3968,-7.62598 v -8.43028 l -16.12307,13.08433 z m 125.45855,2.96598 a 13.157047,13.157028 0 0 0 -13.1571,13.15709 13.157047,13.157028 0 0 0 13.1571,13.15709 13.157047,13.157028 0 0 0 13.15708,-13.15709 13.157047,13.157028 0 0 0 -13.15708,-13.15709 z m 99.5556,7.45597 v 21.82382 h 6.22445 v -21.82382 z m -154.14854,1.56448 v 20.25934 h 6.22444 v -14.03489 h 12.85645 v -6.22445 h -12.85645 z m -54.5885,14.4042 v 5.85514 h 15.96867 v -5.85514 z" /></g></g></svg>

<?xml version="1.0" encoding="UTF-8" standalone="no"?>
<!-- Created with Inkscape (http://www.inkscape.org/) -->

<svg
   width="2000.0001"
   height="589.76282"
   viewBox="0 0 529.16668 156.04141"
   version="1.1"
   id="svg1"
   xml:space="preserve"
   sodipodi:docname="sam-inline.svg"
   inkscape:version="1.4 (86a8ad7, 2024-10-11)"
   xmlns:inkscape="http://www.inkscape.org/namespaces/inkscape"
   xmlns:sodipodi="http://sodipodi.sourceforge.net/DTD/sodipodi-0.dtd"
   xmlns="http://www.w3.org/2000/svg"
   xmlns:svg="http://www.w3.org/2000/svg"><sodipodi:namedview
     id="namedview1"
     pagecolor="#ffffff"
     bordercolor="#000000"
     borderopacity="0.25"
     inkscape:showpageshadow="2"
     inkscape:pageopacity="0.0"
     inkscape:pagecheckerboard="0"
     inkscape:deskcolor="#d1d1d1"
     inkscape:zoom="0.31395539"
     inkscape:cx="1110.0303"
     inkscape:cy="635.44059"
     inkscape:window-width="1920"
     inkscape:window-height="1009"
     inkscape:window-x="1912"
     inkscape:window-y="-8"
     inkscape:window-maximized="1"
     inkscape:current-layer="g16" /><defs
     id="defs1" /><g
     id="layer1"
     transform="translate(-928.30122,-27.28868)"
     style="fill:#cccccc"><g
       id="g16"
       transform="matrix(1.5379421,0,0,1.5379421,796.11906,400.65182)"
       style="fill:#cccccc"><path
         id="path17"
         style="font-weight:500;font-size:25.4px;line-height:0.85;font-family:Unbounded;-inkscape-font-specification:'Unbounded Medium';letter-spacing:0px;fill:#cccccc;stroke-width:0.848578;stroke-linecap:round;stroke-linejoin:round"
         d="M 148.90163 -242.76801 C 145.79626 -242.305 141.55883 -239.16097 139.8354 -235.29816 L 134.29896 -238.15459 L 136.84558 -226.84885 C 134.59228 -219.42401 132.73843 -210.51323 131.90993 -201.61045 C 123.54276 -205.64234 114.84781 -209.01095 104.88664 -211.90009 L 104.9021 -211.89606 L 96.117445 -226.71747 C 94.05726 -224.25376 93.207615 -218.60438 93.612825 -214.84455 L 85.947423 -215.21819 L 94.850686 -206.81122 L 94.816749 -207.03231 C 98.508967 -190.63404 109.07805 -178.26241 120.05582 -170.99118 C 117.24797 -170.31351 114.67046 -169.48705 113.43575 -168.68514 C 115.27891 -165.66453 119.75428 -164.35816 123.90885 -164.36942 C 127.0374 -164.37842 126.78175 -164.38659 128.99806 -164.39059 C 121.7701 -164.39059 120.63669 -163.15072 119.33071 -162.07918 C 119.91456 -160.03528 125.34238 -158.65844 128.61602 -158.6633 C 131.06217 -158.6673 135.90665 -158.69108 137.64495 -158.69388 C 130.57931 -158.69388 129.30391 -157.96249 127.82001 -156.47856 C 128.97603 -154.4013 133.22196 -153.93307 135.20821 -153.93597 L 138.45742 -153.94 L 136.31536 -148.45732 C 139.70851 -144.46801 145.46159 -141.92533 152.10448 -141.30669 L 157.13455 -151.26402 C 150.80396 -151.26402 143.10678 -150.94731 138.46717 -153.94 L 172.70527 -153.98637 C 175.43204 -155.86776 178.88002 -161.20754 179.90295 -165.14023 C 174.70417 -166.71286 170.31027 -168.06553 166.25589 -169.31986 L 168.46448 -173.69203 L 170.67308 -178.06453 L 182.36456 -172.26533 C 184.0125 -178.45382 183.58481 -186.73438 176.43498 -189.47006 L 178.16073 -192.88561 C 175.50623 -197.04896 168.14882 -197.96115 162.29265 -195.91843 C 157.57029 -206.74345 151.44636 -217.19205 145.45349 -226.61835 L 146.37517 -225.19366 L 148.90163 -242.76801 z M 269.64893 -224.70309 L 269.64893 -192.45719 L 275.87722 -192.45719 L 275.87722 -211.21732 L 285.77205 -203.1897 L 292.49796 -208.64684 L 301.89483 -216.27259 L 301.89483 -224.70309 L 285.77205 -211.61851 L 269.64893 -224.70309 z M 213.60209 -224.69032 C 210.62028 -224.69032 208.02832 -224.29995 205.82681 -223.51966 C 203.62528 -222.76725 201.9117 -221.66643 200.68552 -220.21735 C 199.48723 -218.76824 198.88786 -217.01293 198.88786 -214.95073 C 198.88786 -212.33121 199.79381 -210.28306 201.60518 -208.80611 C 203.44441 -207.35701 206.39814 -206.40932 210.46677 -205.96346 L 216.77906 -205.2528 C 219.00843 -205.00201 220.35734 -204.61482 221.14484 -204.07172 C 221.95947 -203.55578 222.36691 -202.8091 222.36691 -201.83154 C 222.36691 -200.58243 221.66107 -199.60486 220.24904 -198.89885 C 218.86417 -198.21998 216.96301 -197.8804 214.54627 -197.8804 C 212.88984 -197.8804 211.42349 -198.08394 210.14723 -198.49127 C 208.89812 -198.92574 207.89352 -199.52319 207.13322 -200.28354 C 206.40006 -201.07103 205.95209 -201.98039 205.78917 -203.01228 L 198.78336 -203.01228 C 198.89197 -200.89423 199.61132 -199.03465 200.94189 -197.4325 C 202.27245 -195.85756 204.09188 -194.62205 206.40004 -193.72597 C 208.70814 -192.85703 211.38298 -192.42225 214.4243 -192.42225 C 217.41129 -192.42225 220.01795 -192.8432 222.2446 -193.68497 C 224.47128 -194.52678 226.19553 -195.7079 227.41748 -197.22854 C 228.66659 -198.77635 229.29141 -200.56877 229.29141 -202.60537 C 229.29141 -204.3161 229.31904 -205.74056 228.56664 -206.88312 C 227.84209 -208.02568 226.61575 -208.93164 224.888 -209.60044 C 223.18808 -210.29711 220.88925 -210.79855 217.99105 -211.10509 L 211.4281 -211.89942 C 209.42165 -212.15023 208.01463 -212.52648 207.20647 -213.02808 C 206.4262 -213.55756 206.03581 -214.29558 206.03581 -215.24306 C 206.03581 -216.46922 206.70483 -217.41686 208.04246 -218.0857 C 209.3801 -218.75449 211.17748 -219.08903 213.43475 -219.08903 C 215.05103 -219.08903 216.78973 -218.89386 217.98803 -218.5037 C 219.18633 -218.14144 220.12018 -217.61171 220.78901 -216.91504 C 221.48569 -216.24621 221.90336 -215.45234 222.04266 -214.53273 L 229.23261 -214.53273 C 229.12114 -216.56702 228.39656 -218.33652 227.05896 -219.84136 C 225.72132 -221.37406 223.92392 -222.55829 221.66667 -223.39433 C 219.40941 -224.25821 216.5003 -224.69032 213.60209 -224.69032 z M 250.03702 -224.66814 L 233.91458 -192.42225 L 240.7796 -192.42225 L 250.03736 -210.9391 L 259.29511 -192.42225 L 266.16047 -192.42225 L 250.03702 -224.66814 z M 295.92695 -208.42574 L 295.92695 -198.31251 L 285.81371 -198.31251 L 285.81371 -192.45719 L 301.78226 -192.45719 L 301.78226 -198.31251 L 301.78226 -208.42574 L 295.92695 -208.42574 z M 345.72904 -186.4117 L 345.72904 -153.98704 L 351.95363 -153.98704 L 351.95363 -175.51791 L 369.21448 -153.98704 L 377.97528 -153.98704 L 377.97528 -186.4117 L 371.75069 -186.4117 L 371.75069 -161.75123 L 360.52257 -175.75681 L 351.95363 -175.75681 L 351.95363 -186.4117 L 345.72904 -186.4117 z M 382.74225 -186.32232 L 382.74225 -176.82835 L 388.82706 -176.82835 L 388.82706 -181.42094 L 401.83402 -181.42094 C 403.86229 -181.42094 405.46041 -180.99122 406.62821 -180.13133 C 407.82673 -179.30012 408.42553 -178.12472 408.42553 -176.60557 C 408.42553 -175.11507 407.82673 -173.93972 406.62821 -173.07982 C 405.46041 -172.21993 403.86229 -171.78987 401.83402 -171.78987 L 392.31283 -171.78987 L 382.74225 -171.78987 L 404.97874 -154.07642 L 414.68742 -154.07642 L 398.39529 -166.97485 L 402.38709 -166.97485 C 404.81486 -166.97485 406.93527 -167.37587 408.74844 -168.17844 C 410.59228 -169.00967 412.02146 -170.14202 413.03559 -171.57516 C 414.08044 -173.03697 414.60308 -174.7138 414.60308 -176.60557 C 414.60308 -178.55465 414.08044 -180.24585 413.03559 -181.67899 C 412.02146 -183.14081 410.59228 -184.27281 408.74844 -185.07538 C 406.93527 -185.9066 404.81486 -186.32232 402.38709 -186.32232 L 382.74225 -186.32232 z M 423.86957 -186.32232 L 423.86957 -180.467 L 429.96984 -180.467 L 429.96984 -186.32232 L 423.86957 -186.32232 z M 324.24186 -186.28065 C 315.31089 -186.28069 308.07098 -179.04045 308.07103 -170.10949 C 308.07098 -161.17853 315.31089 -153.93862 324.24186 -153.93866 C 333.17283 -153.93863 340.41274 -161.17854 340.41269 -170.10949 C 340.41274 -179.04044 333.17283 -186.28068 324.24186 -186.28065 z M 250.03702 -186.26755 L 236.95043 -160.09302 L 233.91424 -154.02165 L 240.7796 -154.02165 L 259.29478 -154.02165 L 266.16047 -154.02165 L 263.12428 -160.09302 L 250.03702 -186.26755 z M 269.64154 -186.23328 L 269.64154 -180.45424 L 275.86579 -180.45424 L 275.86579 -186.23328 L 269.64154 -186.23328 z M 295.67024 -186.23328 L 295.67024 -153.98671 L 301.89483 -153.98671 L 301.89483 -186.23328 L 295.67024 -186.23328 z M 198.78336 -186.2326 L 198.78336 -153.98704 L 205.01098 -153.98704 L 205.01098 -172.74717 L 214.90614 -164.71955 L 221.63239 -170.17635 L 231.02926 -177.80244 L 231.02926 -186.2326 L 214.90614 -173.14836 L 198.78336 -186.2326 z M 324.24186 -181.21194 C 330.37346 -181.21196 335.34402 -176.24109 335.34398 -170.10949 C 335.34402 -163.9779 330.37346 -159.00735 324.24186 -159.00737 C 318.11025 -159.00734 313.13971 -163.9779 313.13975 -170.10949 C 313.13971 -176.24109 318.11025 -181.21197 324.24186 -181.21194 z M 423.79733 -175.81091 L 423.79733 -153.98704 L 430.02192 -153.98704 L 430.02192 -175.81091 L 423.79733 -175.81091 z M 324.24186 -174.53239 C 321.79933 -174.5324 319.81927 -172.55203 319.81929 -170.10949 C 319.81927 -167.66696 321.79933 -165.68691 324.24186 -165.68692 C 326.6844 -165.68692 328.66445 -167.66696 328.66443 -170.10949 C 328.66445 -172.55203 326.6844 -174.53239 324.24186 -174.53239 z M 269.64893 -174.24645 L 269.64893 -153.98704 L 275.87352 -153.98704 L 275.87352 -168.02186 L 288.72995 -168.02186 L 288.72995 -174.24645 L 275.87352 -174.24645 L 269.64893 -174.24645 z M 215.06037 -159.84202 L 215.06037 -153.98704 L 231.02926 -153.98704 L 231.02926 -159.84202 L 215.06037 -159.84202 z " /></g></g></svg>
